!!!COM: Beethoven, Ludwig van
!!!CDT: 1770///-1827///
!!!OTL: Six Variations on a Swiss Song
!!!OMV: Variation 2
!!!OPS: WO 64
!!!ODT: ~1791///
!!!AGN: Variations
**kern	**dynam	**kern	**dynam
*Ipiano	*Ipiano	*Ipiano	*Ipiano
*clefF4	*clefF4	*clefG2	*clefG2
*k[b-]	*k[b-]	*k[b-]	*k[b-]
*met(C)	*met(C)	*met(C)	*met(C)
*M4/4	*M4/4	*M4/4	*M4/4
*MM120	*MM120	*MM120	*MM120
4r	.	4c'/	.
=26	=26	=26	=26
(8.F\L	.	(4f'/	.
16C\k	.	.	.
8.E\	.	4g'/	.
16C\Jk	.	.	.
8.F\L	.	4a'/	.
16C\k	.	.	.
8.D\	.	4f'/)	.
16C\Jk	.	.	.
=27	=27	=27	=27
8.E\L	.	2cc'^\	.
16C\k	.	.	.
8.E\	.	.	.
16G\Jk	.	.	.
8.B-\L	.	2e'^/ 2g'^/	.
16A\k	.	.	.
8.B-\	.	.	.
16c\Jk	.	.	.
=28	=28	=28	=28
8.A\L	.	2.f'^/	.
16c\k	.	.	.
8.A\	.	.	.
16G\Jk	.	.	.
8.F\L	.	.	.
16A\k	.	.	.
8.G\	.	4cc'\	.
16F\Jk	.	.	.
=29	=29	=29	=29
8.E\L	.	(4cc'\	.
16G\k	.	.	.
8.D\	.	4dd'\	.
16G\Jk	.	.	.
8.C\L	.	4ee'\	.
16G\k	.	.	.
8.E\	.	4cc'\)	.
16G\Jk	.	.	.
=30	=30	=30	=30
4D\)	.	2ff'^\	.
(8.d\L	.	.	.
16c\Jk	.	.	.
8.B\L	.	2f'^/ 2g'^/ 2dd'^/	.
16A\k	.	.	.
8.B\	.	.	.
16G\Jk	.	.	.
=31	=31	=31	=31
8.c\L	.	2.e'^/ 2.g'^/ 2.cc'^/	.
16A\k	.	.	.
8.G\	.	.	.
16F\Jk	.	.	.
8.E\L	.	.	.
16D\Jk	.	.	.
4C/)	.	4cc'\	.
=32	=32	=32	=32
4r	.	(4ff'\	.
(4c'\	.	4g'\ 4ee'\	.
4f'\	.	4a'\ 4dd'\	.
4e'\	.	4g'/ 4cc'/	.
=33	=33	=33	=33
4d'\	.	4f'\ 4ff'\	.
4c'\	.	4g'\ 4ee'\	.
4f'\)	.	4a'\ 4dd'\)	f
(8.e\L	.	4c'/	.
16d\Jk	.	.	.
=34	=34	=34	=34
8.c\L	.	(4f'/	.
16d\k	.	.	.
8.B-\	.	4g'/	.
16c\Jk	.	.	.
8.A\L	.	4a'/	.
16B-\k	.	.	.
8.G\	.	4b-'/)	.
16A\Jk	.	.	.
=35	=35	=35	=35
4F\	.	2cc'^\	.
8.E\L	.	.	.
16D\Jk	.	.	.
8.C/L	.	2c'^/ 2e'^/ 2g'^/	.
16BB-/k	.	.	.
8.AA/	.	.	.
16BB-/Jk	.	.	.
=36	=36	=36	=36
8.C/L	.	2.A^/ 2.c^/ 2.f^/	.
16BB-/k	.	.	.
8.AA/	.	.	.
16GG/Jk	.	.	.
4FF/)	.	.	.
==	==	==	==
*-	*-	*-	*-
!!!ENC: Craig Stuart Sapp
!!!END: 2004/06/07/
